svg/fluentui-system-icons/ic_fluent_share_screen_start_48_filled.svg

<svg width="48" height="48" viewBox="0 0 48 48" fill="none" xmlns="http://www.w3.org/2000/svg">
<path d="M8.25 8C5.90279 8 4 9.90279 4 12.25V35.75C4 38.0972 5.90279 40 8.25 40H39.75C42.0972 40 44 38.0972 44 35.75V12.25C44 9.90279 42.0972 8 39.75 8H8.25ZM24 14.75C24.3315 14.75 24.6495 14.8817 24.8839 15.1161L30.8839 21.1161C31.372 21.6043 31.372 22.3957 30.8839 22.8839C30.3957 23.372 29.6043 23.372 29.1161 22.8839L25.25 19.0178V31.75C25.25 32.4404 24.6904 33 24 33C23.3096 33 22.75 32.4404 22.75 31.75V19.0178L18.8839 22.8839C18.3957 23.372 17.6043 23.372 17.1161 22.8839C16.628 22.3957 16.628 21.6043 17.1161 21.1161L23.1161 15.1161C23.3505 14.8817 23.6685 14.75 24 14.75Z" fill="#212121"/>
</svg>

<svg xmlns="http://www.w3.org/2000/svg" width="48" height="48"><path d="M8.25 8A4.25 4.25 0 0 0 4 12.25v23.5A4.25 4.25 0 0 0 8.25 40h31.5A4.25 4.25 0 0 0 44 35.75v-23.5A4.25 4.25 0 0 0 39.75 8H8.25ZM24 14.75c.331 0 .65.132.884.366l6 6a1.25 1.25 0 0 1-1.768 1.768l-3.866-3.866V31.75a1.25 1.25 0 1 1-2.5 0V19.018l-3.866 3.866a1.25 1.25 0 0 1-1.768-1.768l6-6A1.25 1.25 0 0 1 24 14.75Z"/></svg>
